app/img/contact/2.svg

<svg width="26" height="22" viewBox="0 0 26 22" fill="none" xmlns="http://www.w3.org/2000/svg">
    <path d="M13.0807 18.9884L13.0585 18.986C12.8035 18.9586 12.5482 18.9298 12.2928 18.901C11.6125 18.8244 10.9309 18.7475 10.2483 18.6955L10.2437 18.6951L10.2437 18.6951C9.99562 18.6704 9.74554 18.7156 9.52017 18.8262C7.87566 19.7666 6.17732 20.6065 4.3388 21.1218M13.0807 18.9884L4.2841 20.9295M13.0807 18.9884L13.1028 18.9859C13.3951 18.9521 13.6894 18.9238 13.9839 18.8953C14.6375 18.8323 15.2928 18.769 15.9326 18.647C18.6308 18.1476 21.0803 17.0658 23.0424 14.9999C25.7185 12.1898 25.9293 8.34554 23.5401 5.3117C22.3658 3.8195 20.8572 2.78115 19.1539 2.05598C16.018 0.71996 12.7723 0.473545 9.47347 1.20378L9.47342 1.20379C6.83548 1.78845 4.45514 2.95124 2.63945 5.10646C1.14242 6.87443 0.478895 8.9283 0.948939 11.2772L0.948955 11.2772C1.31449 13.1 2.30423 14.5456 3.66478 15.7137L3.79506 15.5619M13.0807 18.9884L3.79506 15.5619M4.3388 21.1218C4.33856 21.1219 4.33831 21.122 4.33807 21.122L4.2841 20.9295M4.3388 21.1218C4.33888 21.1218 4.33896 21.1218 4.33905 21.1218L4.2841 20.9295M4.3388 21.1218C3.99331 21.2205 3.62876 21.2259 3.28063 21.1373L3.27367 21.1356L3.2737 21.1354C2.16619 20.811 1.82638 19.5672 2.41703 18.5721M4.2841 20.9295C3.97252 21.0185 3.64385 21.0233 3.32992 20.9435C2.37489 20.6638 2.04972 19.5825 2.58911 18.6741M2.41703 18.5721C2.41696 18.5723 2.41689 18.5724 2.41683 18.5725L2.58911 18.6741M2.41703 18.5721C2.41707 18.5721 2.41711 18.572 2.41714 18.572L2.58911 18.6741M2.41703 18.5721C2.70753 18.0794 2.98047 17.5807 3.25525 17.0786C3.42381 16.7706 3.59307 16.4614 3.76749 16.1515M2.58911 18.6741C2.88084 18.1792 3.15707 17.6746 3.43337 17.1698C3.60167 16.8623 3.76999 16.5548 3.94186 16.2494M3.94186 16.2494L3.76736 16.1517C3.7674 16.1516 3.76745 16.1515 3.76749 16.1515M3.94186 16.2494C4.10146 15.9644 4.05537 15.7864 3.79506 15.5619M3.94186 16.2494L3.76757 16.1513C3.76754 16.1514 3.76752 16.1514 3.76749 16.1515M3.76749 16.1515C3.83603 16.029 3.8395 15.9659 3.83071 15.9265C3.82074 15.8818 3.78395 15.8165 3.66445 15.7134L3.79506 15.5619M19.9581 4.36485L19.9581 4.36484C16.5689 2.39173 12.9675 2.07402 9.22434 3.02055L9.22433 3.02055C7.24582 3.52077 5.48042 4.43672 4.08882 5.98313L4.08878 5.98317C2.80518 7.40873 2.21234 9.06585 2.62425 10.9953L19.9581 4.36485ZM19.9581 4.36485L19.9605 4.36624M19.9581 4.36485L19.9605 4.36624M19.9605 4.36624C20.96 4.92941 21.8231 5.71782 22.4849 6.67283C24.0658 9.00091 23.8563 11.6882 21.9285 13.7777C20.3819 15.4533 18.4281 16.3657 16.2506 16.8647C14.2188 17.3261 12.1156 17.3468 10.0756 16.9255C9.89159 16.8852 9.70156 16.883 9.5167 16.919C9.33305 16.9548 9.15841 17.0275 9.0028 17.1328C7.42264 18.1023 5.79192 18.9289 4.02782 19.4286M19.9605 4.36624L4.02782 19.4286M4.02782 19.4286C4.02155 19.4299 4.01528 19.4312 4.009 19.4325C4.13745 19.1721 4.26522 18.9147 4.39193 18.6594C4.79462 17.8481 5.18674 17.058 5.55697 16.2602M4.02782 19.4286L2.62426 10.9954C2.96341 12.5824 3.93846 13.7534 5.17761 14.7528M5.55697 16.2602C5.55692 16.2603 5.55688 16.2604 5.55683 16.2605L5.37568 16.1758L5.5571 16.26C5.55705 16.26 5.55701 16.2601 5.55697 16.2602ZM5.55697 16.2602C5.70575 15.9422 5.79439 15.6744 5.72376 15.4153C5.65474 15.1621 5.44581 14.9678 5.17761 14.7528M5.17761 14.7528C5.1775 14.7527 5.1774 14.7527 5.17729 14.7526L5.05222 14.9086L5.17777 14.753C5.17772 14.7529 5.17766 14.7529 5.17761 14.7528Z"
          fill="#C4C4C4" stroke="#C4C4C4" stroke-width="0.4"/>
</svg>

<svg width="26" height="22" fill="none" xmlns="http://www.w3.org/2000/svg"><path d="m13.08 18.988-.021-.002c-.255-.027-.51-.056-.766-.085a55.94 55.94 0 0 0-2.045-.206h-.004a1.34 1.34 0 0 0-.724.131c-1.644.94-3.343 1.78-5.181 2.296m8.742-2.134L4.284 20.93m8.797-1.942.022-.002c.292-.034.586-.062.88-.09.654-.064 1.31-.127 1.95-.249 2.698-.5 5.147-1.581 7.11-3.647 2.675-2.81 2.886-6.654.497-9.688-1.174-1.493-2.683-2.53-4.386-3.256C16.018.72 12.772.474 9.474 1.204c-2.639.584-5.019 1.747-6.835 3.902C1.142 6.874.48 8.928.95 11.277c.365 1.823 1.355 3.269 2.716 4.437l.13-.152m9.286 3.426-9.286-3.426m.544 5.56-.055-.192m.055.192-.055-.192m.055.192a2.02 2.02 0 0 1-1.058.015l-.007-.001c-1.108-.325-1.448-1.569-.857-2.564m1.867 2.358a1.83 1.83 0 0 1-.954.014c-.955-.28-1.28-1.361-.74-2.27m-.173-.102.172.102m-.172-.102.172.102m-.172-.102c.29-.493.563-.991.838-1.493.169-.308.338-.618.512-.928M2.59 18.674c.292-.495.568-1 .844-1.504.169-.308.337-.615.509-.92m0 0-.175-.098m.175.097c.16-.285.113-.463-.147-.687m.147.687-.174-.098m0 0c.068-.122.072-.185.063-.224-.01-.045-.047-.11-.167-.214l.131-.151M19.958 4.365c-3.39-1.973-6.99-2.291-10.734-1.344-1.978.5-3.744 1.416-5.135 2.962-1.284 1.426-1.877 3.083-1.465 5.012l17.334-6.63Zm0 0 .003.001m-.003-.001.003.001m0 0a7.635 7.635 0 0 1 2.524 2.307c1.58 2.328 1.371 5.015-.556 7.105-1.547 1.675-3.5 2.588-5.678 3.087a14.566 14.566 0 0 1-6.175.06 1.38 1.38 0 0 0-1.073.208c-1.58.97-3.211 1.796-4.975 2.296M19.96 4.366 4.027 19.43m0 0a.065.065 0 0 0-.019.004l.383-.774c.403-.81.795-1.601 1.165-2.399m-1.53 3.169-1.403-8.434c.34 1.587 1.314 2.758 2.554 3.758m.379 1.507-.181-.084.181.084Zm0 0c.149-.318.237-.586.167-.845-.07-.253-.278-.447-.546-.662m0 0-.126.156.126-.156Z" fill="#C4C4C4" stroke="#C4C4C4" stroke-width=".4"/></svg>
